admin/assets/img/nx-menu-icon.svg

<svg height="640" viewBox="0 0 633 640" width="633" xmlns="http://www.w3.org/2000/svg"><g fill="none" fill-rule="evenodd"><g fill-rule="nonzero"><path d="m222.6 586.6h186.1c-3.4 21.5-45.6 49-81.6 52.9-41.4 4.5-91.7-20.6-104.5-52.9z" fill="#fff"/><path d="m610.6 500c-3.8-.3-7.7-.1-11.6-.1-9.2 0-18.4 0-29.8 0 0-7 0-11.9 0-16.9 0-76.4.3-152.9-.3-229.3-.1-17.3-1.7-34.8-5.1-51.7-28.5-140.8-170.1-229.4-309.5-194.3-111.3 28-191.5 129.5-191 244.8.3 69.5 0 139 0 208.4 0 6.3 0 25.9-.1 38.9-8.5-.1-32.9-.2-41.4.3-12.7.7-21.2 10.5-21 23.1.2 12.2 8.3 20.9 20.7 22 3.5.3 6.9.2 10.4.2 189.5.1 379.1.1 568.6.1 3.5 0 7 .1 10.4-.3 12.2-1.2 20.7-10.2 20.9-22.2.3-11.9-8.8-22-21.2-23z" fill="#fff"/><circle cx="461.9" cy="418.3" fill="#a1a1b5" r="25.4"/><path d="m485.1 228.6.4-.3c-.3-2.2-.6-4.3-1.1-6.4-15.4-76.1-81-132.1-158-136.8-.1 0-.2 0-.3 0-3.3-.2-6.6-.3-10-.3-.1 0-.1 0-.2 0s-.1 0-.2 0c-3.3 0-6.7.1-10 .3-.1 0-.2 0-.3 0-77.1 4.6-142.6 60.7-158 136.8-.4 2.1-.7 4.3-1.1 6.4l.4.3c-1.5 9-2.3 18.2-2.2 27.5 0 7.4 0 163.6.1 184.8l52.6 56.8c0-39.8 0-219.2-.1-241.8-.2-53.4 37.6-101.7 89.9-114.9 4.3-1.1 8.7-1.9 13.1-2.5.7-.1 1.5-.2 2.2-.3 1.7-.2 3.3-.3 5-.5 2.4-.2 4.8-.3 7.2-.3h1.3 1.3c2.4 0 4.8.2 7.2.3 1.7.1 3.3.3 5 .5.7.1 1.5.2 2.2.3 4.4.6 8.8 1.4 13.1 2.5 52.3 13.2 90.1 61.5 89.9 114.9 0 8.5-.1 82.4-.1 116.9l52.6-35.1c0-20 0-79.4 0-81.6.4-9.3-.4-18.5-1.9-27.5z" fill="#a1a1b5"/></g><path d="m53.1 499.8c-10.4.2-20.9-.3-31.3.3-12.7.7-21.2 10.5-21 23.1.2 12.2 8.3 20.9 20.7 22 3.5.3 6.9.2 10.4.2 189.5.1 379.1.1 568.6.1 3.5 0 7 .1 10.4-.3 12.2-1.2 20.7-10.2 20.9-22.2.2-12.1-8.9-22.1-21.2-23.2-3.8-.3-7.7-.1-11.6-.1-9.2 0-18.4 0-29.8 0 0-7 0-11.9 0-16.9 0-66.6.2-133.2-.1-199.8l-352.7 235.4-127.9-138 54.8-50.4 84.6 91.1 334.9-223.3c-30.5-138.3-170.5-224.8-308.6-190.1-111.3 28-191.5 129.5-191 244.8.3 69.5 0 139 0 208.4 0 9.7.2 19.3-.1 28.9"/><path d="m143.4 330-54.8 50.4 127.8 137.9 352.8-235.3c0-9.8-.1-19.6-.1-29.5-.1-17.3-1.7-34.8-5.1-51.7-.3-1.4-.7-2.8-1-4.2l-335 223.5z"/><path d="m143.4 330-54.8 50.4 127.8 137.9 354.8-236.6c0-9.8-.1-19.6-.1-29.5-.1-17.3-1.7-34.8-5.1-51.7-.3-1.4-.7-2.8-1-4.2l-337 224.8z" fill="#51515b" fill-rule="nonzero"/><path d="m568.6 253.9c.1 9.8.1 19.6.1 29.5l64.1-42.6-41.3-62-29 19.2c.3 1.4.7 2.8 1 4.2 3.4 16.9 5 34.5 5.1 51.7z" fill="#5f5f66" fill-rule="nonzero"/></g></svg>

<svg width="633px" height="640px" viewBox="0 0 633 640" version="1.1" xmlns="http://www.w3.org/2000/svg" xmlns:xlink="http://www.w3.org/1999/xlink">
    <!-- Generator: Sketch 51.2 (57519) - http://www.bohemiancoding.com/sketch -->
    <desc>Created with Sketch.</desc>
    <defs></defs>
    <g id="Page-1" stroke="none" stroke-width="1" fill="none" fill-rule="evenodd">
        <g id="NotificationX_white" transform="translate(-1038.000000, -166.000000)">
            <g id="Group" transform="translate(1038.000000, 166.000000)">
                <path d="M222.6,586.6 C284.8,586.6 346.8,586.6 408.7,586.6 C405.3,608.1 363.1,635.6 327.1,639.5 C285.7,644 235.4,618.9 222.6,586.6 Z" id="Shape" fill="#FFFFFF" fill-rule="nonzero"></path>
                <path d="M610.6,500 C606.8,499.7 602.9,499.9 599,499.9 C589.8,499.9 580.6,499.9 569.2,499.9 C569.2,492.9 569.2,488 569.2,483 C569.2,406.6 569.5,330.1 568.9,253.7 C568.8,236.4 567.2,218.9 563.8,202 C535.3,61.2 393.7,-27.4 254.3,7.7 C143,35.7 62.8,137.2 63.3,252.5 C63.6,322 63.3,391.5 63.3,460.9 C63.3,467.2 63.3,486.8 63.2,499.8 C54.7,499.7 30.3,499.6 21.8,500.1 C9.1,500.8 0.6,510.6 0.8,523.2 C1,535.4 9.1,544.1 21.5,545.2 C25,545.5 28.4,545.4 31.9,545.4 C221.4,545.5 411,545.5 600.5,545.5 C604,545.5 607.5,545.6 610.9,545.2 C623.1,544 631.6,535 631.8,523 C632.1,511.1 623,501 610.6,500 Z" id="Shape" fill="#FFFFFF" fill-rule="nonzero"></path>
                <circle id="Oval" fill="#A1A1B5" fill-rule="nonzero" cx="461.9" cy="418.3" r="25.4"></circle>
                <path d="M485.1,228.6 L485.5,228.3 C485.2,226.1 484.9,224 484.4,221.9 C469,145.8 403.4,89.8 326.4,85.1 C326.3,85.1 326.2,85.1 326.1,85.1 C322.8,84.9 319.5,84.8 316.1,84.8 C316,84.8 316,84.8 315.9,84.8 C315.8,84.8 315.8,84.8 315.7,84.8 C312.4,84.8 309,84.9 305.7,85.1 C305.6,85.1 305.5,85.1 305.4,85.1 C228.3,89.7 162.8,145.8 147.4,221.9 C147,224 146.7,226.2 146.3,228.3 L146.7,228.6 C145.2,237.6 144.4,246.8 144.5,256.1 C144.5,263.5 144.5,419.7 144.6,440.9 L197.2,497.7 C197.2,457.9 197.2,278.5 197.1,255.9 C196.9,202.5 234.7,154.2 287,141 C291.3,139.9 295.7,139.1 300.1,138.5 C300.8,138.4 301.6,138.3 302.3,138.2 C304,138 305.6,137.9 307.3,137.7 C309.7,137.5 312.1,137.4 314.5,137.4 C314.9,137.4 315.4,137.4 315.8,137.4 C316.2,137.4 316.7,137.4 317.1,137.4 C319.5,137.4 321.9,137.6 324.3,137.7 C326,137.8 327.6,138 329.3,138.2 C330,138.3 330.8,138.4 331.5,138.5 C335.9,139.1 340.3,139.9 344.6,141 C396.9,154.2 434.7,202.5 434.5,255.9 C434.5,264.4 434.4,338.3 434.4,372.8 L487,337.7 C487,317.7 487,258.3 487,256.1 C487.4,246.8 486.6,237.6 485.1,228.6 Z" id="Shape" fill="#A1A1B5" fill-rule="nonzero"></path>
                <path d="M53.1,499.8 C42.7,500 32.2,499.5 21.8,500.1 C9.1,500.8 0.6,510.6 0.8,523.2 C1,535.4 9.1,544.1 21.5,545.2 C25,545.5 28.4,545.4 31.9,545.4 C221.4,545.5 411,545.5 600.5,545.5 C604,545.5 607.5,545.6 610.9,545.2 C623.1,544 631.6,535 631.8,523 C632,510.9 622.9,500.9 610.6,499.8 C606.8,499.5 602.9,499.7 599,499.7 C589.8,499.7 580.6,499.7 569.2,499.7 C569.2,492.7 569.2,487.8 569.2,482.8 C569.2,416.2 569.4,349.6 569.1,283 L216.4,518.4 L88.5,380.4 L143.3,330 L227.9,421.1 L562.8,197.8 C532.3,59.5 392.3,-27 254.2,7.7 C142.9,35.7 62.7,137.2 63.2,252.5 C63.5,322 63.2,391.5 63.2,460.9 C63.2,470.6 63.4,480.2 63.1,489.8" id="Shape"></path>
                <path d="M143.4,330 L88.6,380.4 L216.4,518.3 L569.2,283 C569.2,273.2 569.1,263.4 569.1,253.5 C569,236.2 567.4,218.7 564,201.8 C563.7,200.4 563.3,199 563,197.6 L228,421.1 L143.4,330 Z" id="Shape"></path>
                <path d="M143.4,330 L88.6,380.4 L216.4,518.3 L571.2,281.7 C571.2,271.9 571.1,262.1 571.1,252.2 C571,234.9 569.4,217.4 566,200.5 C565.7,199.1 565.3,197.7 565,196.3 L228,421.1 L143.4,330 Z" id="Shape" fill="#51515B" fill-rule="nonzero"></path>
                <path d="M568.6,253.9 C568.7,263.7 568.7,273.5 568.7,283.4 L632.8,240.8 L591.5,178.8 L562.5,198 C562.8,199.4 563.2,200.8 563.5,202.2 C566.9,219.1 568.5,236.7 568.6,253.9 Z" id="Shape" fill="#5F5F66" fill-rule="nonzero"></path>
            </g>
        </g>
    </g>
</svg>
